icons/svg/github-box.svg

﻿<?xml version="1.0" encoding="utf-8"?>
<!DOCTYPE svg PUBLIC "-//W3C//DTD SVG 1.1//EN" "http://www.w3.org/Graphics/SVG/1.1/DTD/svg11.dtd">
<svg xmlns="http://www.w3.org/2000/svg" xmlns:xlink="http://www.w3.org/1999/xlink" version="1.1" baseProfile="full" width="24" height="24" viewBox="0 0 24.00 24.00" enable-background="new 0 0 24.00 24.00" xml:space="preserve">
	<path fill="#000000" fill-opacity="1" fill-rule="evenodd" stroke-width="0.2" stroke-linejoin="round" d="M 4,2L 20,2C 21.1046,2 22,2.89543 22,4L 22,20C 22,21.1046 21.1046,22 20,22L 14.8465,22C 14.49,21.9189 14.4792,21.2442 14.4792,21.007L 14.4915,18.2637C 14.4915,17.3309 14.1717,16.7205 13.8131,16.4118C 16.0403,16.1642 18.3787,15.3189 18.3787,11.4773C 18.3787,10.3856 17.9919,9.49292 17.351,8.79388C 17.4535,8.54089 17.7967,7.52417 17.2509,6.1474C 17.2509,6.1474 16.413,5.87852 14.5038,7.17253C 13.7051,6.95072 12.8499,6.8398 12.0003,6.83594C 11.1501,6.8398 10.2943,6.95072 9.49686,7.17253C 7.58643,5.87852 6.74723,6.1474 6.74723,6.1474C 6.20272,7.52417 6.54588,8.54089 6.64902,8.79388C 6.00934,9.49292 5.61952,10.3856 5.61952,11.4773C 5.61952,15.3093 7.95414,16.1672 10.1746,16.4196C 9.88914,16.6696 9.63069,17.1102 9.53984,17.7564C 8.97013,18.0125 7.52135,18.4537 6.62936,16.9256C 6.62936,16.9256 6.10143,15.9657 5.09771,15.895C 5.09771,15.895 4.121,15.8824 5.02895,16.5029C 5.02895,16.5029 5.68459,16.8104 6.13949,17.9657C 6.13949,17.9657 6.72636,19.9105 9.50791,19.3062L 9.52142,21.007C 9.52142,21.2437 9.50457,21.9231 9.14439,22L 4,22C 2.89543,22 2,21.1046 2,20L 2,4C 2,2.89543 2.89543,2 4,2 Z "/>
</svg>

<svg xmlns="http://www.w3.org/2000/svg" version="1.1" baseProfile="full" width="24" height="24" viewBox="0 0 24.00 24.00" xml:space="preserve"><path fill="#000" fill-opacity="1" fill-rule="evenodd" stroke-width=".2" stroke-linejoin="round" d="M4 2h16c1.105 0 2 .895 2 2v16c0 1.105-.895 2-2 2h-5.153c-.357-.08-.368-.756-.368-.993l.01-2.743c.002-.933-.318-1.543-.677-1.852 2.227-.248 4.566-1.093 4.566-4.935 0-1.09-.388-1.984-1.03-2.683.103-.253.447-1.27-.1-2.647 0 0-.837-.268-2.746 1.026-.8-.222-1.654-.333-2.504-.337-.85.004-1.706.115-2.503.337-1.91-1.294-2.75-1.026-2.75-1.026-.544 1.377-.2 2.394-.098 2.647-.64.7-1.03 1.592-1.03 2.683 0 3.832 2.334 4.69 4.555 4.943-.286.25-.544.69-.635 1.336-.57.256-2.02.698-2.91-.83 0 0-.53-.96-1.532-1.03 0 0-.977-.014-.07.607 0 0 .657.307 1.11 1.463 0 0 .588 1.944 3.37 1.34l.013 1.7c0 .238-.015.917-.376.994H4c-1.105 0-2-.895-2-2V4c0-1.105.895-2 2-2z"/></svg>
